src/icons/TestingLogo.svg

<svg width="18" height="10" viewBox="0 0 18 10" fill="none" xmlns="http://www.w3.org/2000/svg">
<path d="M8.70147 6.65269L9.76047 7.71169L16.1096 1.36249L17.1703 2.42315L9.76047 9.83299L4.98747 5.05999L6.04813 3.99934L7.64172 5.59294L8.70147 6.65269ZM8.70274 4.53192L12.4172 0.817383L13.4749 1.87509L9.76047 5.58957L8.70274 4.53192ZM6.5827 8.77324L5.52294 9.83299L0.749969 5.05999L1.81063 3.99934L2.87039 5.05917L2.8695 5.05999L6.5827 8.77324Z" fill="#007DFC"/>
</svg>

<svg width="18" height="10" fill="none" xmlns="http://www.w3.org/2000/svg"><path d="m8.701 6.653 1.06 1.059 6.349-6.35 1.06 1.061-7.41 7.41L4.987 5.06 6.048 4l1.594 1.593 1.06 1.06Zm.002-2.121L12.417.817l1.058 1.058L9.76 5.59 8.703 4.532Zm-2.12 4.241-1.06 1.06L.75 5.06 1.81 4l1.06 1.06 3.713 3.713Z" fill="#007DFC"/></svg>
